press-fit-test.svg

<?xml version="1.0" encoding="UTF-8" standalone="no"?>
<!-- Created with Inkscape (http://www.inkscape.org/) -->

<svg
   xmlns:dc="http://purl.org/dc/elements/1.1/"
   xmlns:cc="http://creativecommons.org/ns#"
   xmlns:rdf="http://www.w3.org/1999/02/22-rdf-syntax-ns#"
   xmlns:svg="http://www.w3.org/2000/svg"
   xmlns="http://www.w3.org/2000/svg"
   xmlns:sodipodi="http://sodipodi.sourceforge.net/DTD/sodipodi-0.dtd"
   xmlns:inkscape="http://www.inkscape.org/namespaces/inkscape"
   width="1052.3622"
   height="744.09448"
   id="svg15641"
   version="1.1"
   inkscape:version="0.48.1 r9760"
   sodipodi:docname="press-fit-test.svg">
  <defs
     id="defs15643" />
  <sodipodi:namedview
     id="base"
     pagecolor="#ffffff"
     bordercolor="#666666"
     borderopacity="1.0"
     inkscape:pageopacity="0.0"
     inkscape:pageshadow="2"
     inkscape:zoom="1.979899"
     inkscape:cx="1390.5995"
     inkscape:cy="1076.5237"
     inkscape:document-units="mm"
     inkscape:current-layer="layer1"
     showgrid="false"
     units="mm"
     showguides="true"
     inkscape:guide-bbox="true"
     inkscape:window-width="1680"
     inkscape:window-height="1002"
     inkscape:window-x="0"
     inkscape:window-y="0"
     inkscape:window-maximized="0">
    <sodipodi:guide
       orientation="1,0"
       position="1062.9921,675.71429"
       id="guide15649" />
    <sodipodi:guide
       orientation="0,1"
       position="1195.7143,1062.9921"
       id="guide15651" />
    <sodipodi:guide
       orientation="1,0"
       position="1133.8583,1238.5714"
       id="guide15653" />
    <sodipodi:guide
       orientation="0,1"
       position="1220,1240.1575"
       id="guide15655" />
    <sodipodi:guide
       orientation="1,0"
       position="1093.1102,1131.4286"
       id="guide15657" />
    <sodipodi:guide
       orientation="1,0"
       position="1103.7402,1197.1429"
       id="guide15659" />
    <sodipodi:guide
       orientation="0,1"
       position="1237.1429,1133.8583"
       id="guide15661" />
    <sodipodi:guide
       orientation="0,1"
       position="1192.1429,1169.2913"
       id="guide15663" />
    <sodipodi:guide
       orientation="1,0"
       position="1240.1575,1198.5714"
       id="guide15665" />
    <sodipodi:guide
       orientation="1,0"
       position="1311.0236,1197.8571"
       id="guide15667" />
    <sodipodi:guide
       orientation="1,0"
       position="1218.8976,1223.5714"
       id="guide15669" />
    <sodipodi:guide
       orientation="0,1"
       position="1266.4286,1179.9213"
       id="guide15671" />
    <sodipodi:guide
       orientation="0,1"
       position="1277.8571,1123.2283"
       id="guide15673" />
    <sodipodi:guide
       orientation="1,0"
       position="1229.5276,1194.2857"
       id="guide15675" />
    <sodipodi:guide
       orientation="0,1"
       position="1269.6429,1156.8898"
       id="guide15683" />
    <sodipodi:guide
       orientation="0,1"
       position="1279.2857,1146.2598"
       id="guide15685" />
    <sodipodi:guide
       orientation="1,0"
       position="1275.5906,1169.2913"
       id="guide15687" />
    <sodipodi:guide
       orientation="0,1"
       position="1321.4286,1174.6063"
       id="guide15699" />
    <sodipodi:guide
       orientation="0,1"
       position="1339.2857,1163.9764"
       id="guide15703" />
    <sodipodi:guide
       orientation="1,0"
       position="1224.2126,1194.2857"
       id="guide15711" />
    <sodipodi:guide
       orientation="0,1"
       position="1321.4286,1128.5433"
       id="guide15716" />
    <sodipodi:guide
       orientation="0,1"
       position="1348.5714,1139.1732"
       id="guide15718" />
    <sodipodi:guide
       orientation="0,1"
       position="1337.5,1222.4409"
       id="guide15747" />
    <sodipodi:guide
       orientation="0,1"
       position="1322.8571,1187.0079"
       id="guide15749" />
    <sodipodi:guide
       orientation="0,1"
       position="1328.2143,1080.7087"
       id="guide15755" />
    <sodipodi:guide
       orientation="0,1"
       position="1348.9286,1116.1417"
       id="guide15757" />
    <sodipodi:guide
       orientation="1,0"
       position="1346.4567,1214.6429"
       id="guide15764" />
    <sodipodi:guide
       orientation="1,0"
       position="1335.8268,1194.2857"
       id="guide15766" />
    <sodipodi:guide
       orientation="1,0"
       position="1325.1969,1211.0714"
       id="guide15768" />
    <sodipodi:guide
       orientation="0,1"
       position="1431.7857,1153.3465"
       id="guide15772" />
    <sodipodi:guide
       orientation="0,1"
       position="1439.2857,1149.8031"
       id="guide15774" />
    <sodipodi:guide
       orientation="0,1"
       position="1436.0714,1172.8346"
       id="guide15776" />
    <sodipodi:guide
       orientation="0,1"
       position="1432.8571,1130.315"
       id="guide15778" />
    <sodipodi:guide
       orientation="1,0"
       position="1381.8898,1142.6088"
       id="guide15782" />
    <sodipodi:guide
       orientation="1,0"
       position="1376.5748,1139.1732"
       id="guide15784" />
  </sodipodi:namedview>
  <metadata
     id="metadata15646">
    <rdf:RDF>
      <cc:Work
         rdf:about="">
        <dc:format>image/svg+xml</dc:format>
        <dc:type
           rdf:resource="http://purl.org/dc/dcmitype/StillImage" />
        <dc:title />
      </cc:Work>
    </rdf:RDF>
  </metadata>
  <g
     inkscape:label="Layer 1"
     inkscape:groupmode="layer"
     id="layer1"
     transform="translate(0,-308.26769)">
    <rect
       style="fill:#ffffff;fill-opacity:1;stroke:#000000;stroke-width:0.35433071999999999;stroke-miterlimit:4;stroke-opacity:1;stroke-dasharray:none"
       id="rect15677"
       width="70.866203"
       height="177.16541"
       x="1062.9921"
       y="-496.06302"
       transform="translate(0,308.26769)" />
    <path
       style="fill:#ffffff;fill-opacity:1;stroke:#000000;stroke-width:0.35433072;stroke-miterlimit:4;stroke-opacity:1;stroke-dasharray:none"
       d="m 1240.1562,-496.0625 0,17.71875 -10.625,0 0,35.4375 10.625,0 0,7.09375 30.6563,0 c 2.6801,0.27218 4.7813,2.56057 4.7813,5.3125 0,2.93539 -2.3773,5.3125 -5.3126,5.3125 l -30.125,0 -10.625,0 0,-5.3125 -5.3124,0 c -2.9357,0 -5.3248,7.68271 -5.3212,10.61808 l 0.01,7.10067 51.9063,0 c 2.6801,0.27218 4.7813,2.56057 4.7813,5.3125 0,2.93539 -2.3773,5.3125 -5.3126,5.3125 l -51.375,0 -0.01,7.07753 c -0,2.93537 2.3858,10.64122 5.3212,10.64122 l 5.3124,0 0,-5.3125 10.625,0 30.6563,0 c 2.6801,0.27218 4.7813,2.56057 4.7813,5.3125 0,2.93539 -2.3773,5.3125 -5.3126,5.3125 l -30.125,0 0,7.0625 -10.625,0 0,35.4375 10.625,0 0,17.71875 70.875,0 0,-177.15625 z"
       transform="translate(0,308.26769)"
       id="rect15679"
       inkscape:connector-curvature="0"
       sodipodi:nodetypes="cccccccsscccssccsscssccccssccccccccc" />
    <rect
       style="fill:none;stroke:#000000;stroke-width:0.35433072;stroke-miterlimit:4;stroke-opacity:1;stroke-dasharray:none"
       id="rect15745"
       width="10.63"
       height="35.432999"
       x="1093.1102"
       y="-425.19681"
       transform="translate(0,308.26769)" />
    <rect
       style="fill:none;stroke:#000000;stroke-width:0.35433072;stroke-miterlimit:4;stroke-opacity:1;stroke-dasharray:none"
       id="rect15753"
       width="10.63"
       height="35.432999"
       x="1093.1102"
       y="-478.34641"
       transform="translate(0,308.26769)" />
    <rect
       style="fill:none;stroke:#000000;stroke-width:0.35433072;stroke-miterlimit:4;stroke-opacity:1;stroke-dasharray:none"
       id="rect15761"
       width="10.63"
       height="35.432999"
       x="1093.1102"
       y="-372.04721"
       transform="translate(0,308.26769)" />
    <path
       style="fill:#ffffff;fill-opacity:1;stroke:#000000;stroke-width:0.35433072;stroke-miterlimit:4;stroke-opacity:1;stroke-dasharray:none"
       d="m 1346.4375,-496.0625 0,17.71875 -10.625,0 0,35.4375 10.625,0 0.019,14.16613 30.1181,0 -0.012,3.55262 -30.125,0 -10.625,0 0,-5.3125 -5.3125,0 c -2.9357,0 -5.3125,2.37713 -5.3125,5.3125 l 0.012,15.93548 51.375,0 -0,3.5434 -51.375,0 -0.01,15.95862 c -0,2.93537 2.3771,5.3125 5.3125,5.3125 l 5.3125,0 0,-5.3125 10.625,0 30.125,0 0,3.53125 -30.0937,0 -0.031,14.15625 -10.625,0 0,35.4375 10.625,0 0,17.71875 70.875,0 0,-177.15625 z"
       transform="translate(0,308.26769)"
       id="path15770"
       inkscape:connector-curvature="0"
       sodipodi:nodetypes="cccccccccccssccccsscccccccccccccc" />
  </g>
</svg>

<?xml version="1.0" encoding="UTF-8" standalone="no"?>
<!-- Created with Inkscape (http://www.inkscape.org/) -->

<svg
   xmlns:dc="http://purl.org/dc/elements/1.1/"
   xmlns:cc="http://creativecommons.org/ns#"
   xmlns:rdf="http://www.w3.org/1999/02/22-rdf-syntax-ns#"
   xmlns:svg="http://www.w3.org/2000/svg"
   xmlns="http://www.w3.org/2000/svg"
   xmlns:sodipodi="http://sodipodi.sourceforge.net/DTD/sodipodi-0.dtd"
   xmlns:inkscape="http://www.inkscape.org/namespaces/inkscape"
   width="1052.3622"
   height="744.09448"
   id="svg15641"
   version="1.1"
   inkscape:version="0.48.1 r9760"
   sodipodi:docname="New document 12">
  <defs
     id="defs15643" />
  <sodipodi:namedview
     id="base"
     pagecolor="#ffffff"
     bordercolor="#666666"
     borderopacity="1.0"
     inkscape:pageopacity="0.0"
     inkscape:pageshadow="2"
     inkscape:zoom="1.979899"
     inkscape:cx="1390.5995"
     inkscape:cy="1076.5237"
     inkscape:document-units="mm"
     inkscape:current-layer="layer1"
     showgrid="false"
     units="mm"
     showguides="false"
     inkscape:guide-bbox="true"
     inkscape:window-width="1680"
     inkscape:window-height="1002"
     inkscape:window-x="0"
     inkscape:window-y="0"
     inkscape:window-maximized="0">
    <sodipodi:guide
       orientation="1,0"
       position="1062.9921,675.71429"
       id="guide15649" />
    <sodipodi:guide
       orientation="0,1"
       position="1195.7143,1062.9921"
       id="guide15651" />
    <sodipodi:guide
       orientation="1,0"
       position="1133.8583,1238.5714"
       id="guide15653" />
    <sodipodi:guide
       orientation="0,1"
       position="1220,1240.1575"
       id="guide15655" />
    <sodipodi:guide
       orientation="1,0"
       position="1093.1102,1131.4286"
       id="guide15657" />
    <sodipodi:guide
       orientation="1,0"
       position="1103.7402,1197.1429"
       id="guide15659" />
    <sodipodi:guide
       orientation="0,1"
       position="1237.1429,1133.8583"
       id="guide15661" />
    <sodipodi:guide
       orientation="0,1"
       position="1192.1429,1169.2913"
       id="guide15663" />
    <sodipodi:guide
       orientation="1,0"
       position="1240.1575,1198.5714"
       id="guide15665" />
    <sodipodi:guide
       orientation="1,0"
       position="1311.0236,1197.8571"
       id="guide15667" />
    <sodipodi:guide
       orientation="1,0"
       position="1218.8976,1223.5714"
       id="guide15669" />
    <sodipodi:guide
       orientation="0,1"
       position="1266.4286,1179.9213"
       id="guide15671" />
    <sodipodi:guide
       orientation="0,1"
       position="1277.8571,1123.2283"
       id="guide15673" />
    <sodipodi:guide
       orientation="1,0"
       position="1229.5276,1194.2857"
       id="guide15675" />
    <sodipodi:guide
       orientation="0,1"
       position="1269.6429,1156.8898"
       id="guide15683" />
    <sodipodi:guide
       orientation="0,1"
       position="1279.2857,1146.2598"
       id="guide15685" />
    <sodipodi:guide
       orientation="1,0"
       position="1275.5906,1169.2913"
       id="guide15687" />
    <sodipodi:guide
       orientation="0,1"
       position="1321.4286,1174.6063"
       id="guide15699" />
    <sodipodi:guide
       orientation="0,1"
       position="1339.2857,1163.9764"
       id="guide15703" />
    <sodipodi:guide
       orientation="1,0"
       position="1224.2126,1194.2857"
       id="guide15711" />
    <sodipodi:guide
       orientation="0,1"
       position="1321.4286,1128.5433"
       id="guide15716" />
    <sodipodi:guide
       orientation="0,1"
       position="1348.5714,1139.1732"
       id="guide15718" />
    <sodipodi:guide
       orientation="0,1"
       position="1337.5,1222.4409"
       id="guide15747" />
    <sodipodi:guide
       orientation="0,1"
       position="1322.8571,1187.0079"
       id="guide15749" />
    <sodipodi:guide
       orientation="0,1"
       position="1328.2143,1080.7087"
       id="guide15755" />
    <sodipodi:guide
       orientation="0,1"
       position="1348.9286,1116.1417"
       id="guide15757" />
    <sodipodi:guide
       orientation="1,0"
       position="1346.4567,1214.6429"
       id="guide15764" />
    <sodipodi:guide
       orientation="1,0"
       position="1335.8268,1194.2857"
       id="guide15766" />
    <sodipodi:guide
       orientation="1,0"
       position="1325.1969,1211.0714"
       id="guide15768" />
    <sodipodi:guide
       orientation="0,1"
       position="1431.7857,1153.3465"
       id="guide15772" />
    <sodipodi:guide
       orientation="0,1"
       position="1439.2857,1149.8031"
       id="guide15774" />
    <sodipodi:guide
       orientation="0,1"
       position="1436.0714,1172.8346"
       id="guide15776" />
    <sodipodi:guide
       orientation="0,1"
       position="1432.8571,1130.315"
       id="guide15778" />
    <sodipodi:guide
       orientation="1,0"
       position="1381.8898,1142.6088"
       id="guide15782" />
    <sodipodi:guide
       orientation="1,0"
       position="1376.5748,1139.1732"
       id="guide15784" />
  </sodipodi:namedview>
  <metadata
     id="metadata15646">
    <rdf:RDF>
      <cc:Work
         rdf:about="">
        <dc:format>image/svg+xml</dc:format>
        <dc:type
           rdf:resource="http://purl.org/dc/dcmitype/StillImage" />
        <dc:title></dc:title>
      </cc:Work>
    </rdf:RDF>
  </metadata>
  <g
     inkscape:label="Layer 1"
     inkscape:groupmode="layer"
     id="layer1"
     transform="translate(0,-308.26769)">
    <rect
       style="fill:#ffffff;fill-opacity:1;stroke:#000000;stroke-width:0.35433071999999999;stroke-miterlimit:4;stroke-opacity:1;stroke-dasharray:none"
       id="rect15677"
       width="70.866203"
       height="177.16541"
       x="1062.9921"
       y="-496.06302"
       transform="translate(0,308.26769)" />
    <path
       style="fill:#ffffff;fill-opacity:1;stroke:#000000;stroke-width:0.35433071999999999;stroke-miterlimit:4;stroke-opacity:1;stroke-dasharray:none"
       d="M 1240.1562 -496.0625 L 1240.1562 -478.34375 L 1229.5312 -478.34375 L 1229.5312 -442.90625 L 1240.1562 -442.90625 L 1240.1562 -435.8125 L 1270.8125 -435.8125 C 1273.4926 -435.54032 1275.5938 -433.25193 1275.5938 -430.5 C 1275.5938 -427.56461 1273.2165 -425.1875 1270.2812 -425.1875 L 1240.1562 -425.1875 L 1229.5312 -425.1875 L 1229.5312 -430.5 L 1224.2188 -430.5 C 1221.2831 -430.5 1218.9062 -428.12287 1218.9062 -425.1875 L 1218.9062 -412.78125 L 1270.8125 -412.78125 C 1273.4926 -412.50907 1275.5938 -410.22068 1275.5938 -407.46875 C 1275.5938 -404.53336 1273.2165 -402.15625 1270.2812 -402.15625 L 1218.9062 -402.15625 L 1218.9062 -389.75 C 1218.9062 -386.81463 1221.2834 -384.4375 1224.2188 -384.4375 L 1229.5312 -384.4375 L 1229.5312 -389.75 L 1240.1562 -389.75 L 1270.8125 -389.75 C 1273.4926 -389.47782 1275.5938 -387.18943 1275.5938 -384.4375 C 1275.5938 -381.50211 1273.2165 -379.125 1270.2812 -379.125 L 1240.1562 -379.125 L 1240.1562 -372.0625 L 1229.5312 -372.0625 L 1229.5312 -336.625 L 1240.1562 -336.625 L 1240.1562 -318.90625 L 1311.0312 -318.90625 L 1311.0312 -496.0625 L 1240.1562 -496.0625 z "
       transform="translate(0,308.26769)"
       id="rect15679" />
    <rect
       style="fill:none;stroke:#000000;stroke-width:0.35433072;stroke-miterlimit:4;stroke-opacity:1;stroke-dasharray:none"
       id="rect15745"
       width="10.63"
       height="35.432999"
       x="1093.1102"
       y="-425.19681"
       transform="translate(0,308.26769)" />
    <rect
       style="fill:none;stroke:#000000;stroke-width:0.35433072;stroke-miterlimit:4;stroke-opacity:1;stroke-dasharray:none"
       id="rect15753"
       width="10.63"
       height="35.432999"
       x="1093.1102"
       y="-478.34641"
       transform="translate(0,308.26769)" />
    <rect
       style="fill:none;stroke:#000000;stroke-width:0.35433072;stroke-miterlimit:4;stroke-opacity:1;stroke-dasharray:none"
       id="rect15761"
       width="10.63"
       height="35.432999"
       x="1093.1102"
       y="-372.04721"
       transform="translate(0,308.26769)" />
    <path
       style="fill:#ffffff;fill-opacity:1;stroke:#000000;stroke-width:0.35433072;stroke-miterlimit:4;stroke-opacity:1;stroke-dasharray:none"
       d="m 1346.4375,-496.0625 0,17.71875 -10.625,0 0,35.4375 10.625,0 0.019,14.16613 30.1181,0 -0.012,3.55262 -30.125,0 -10.625,0 0,-5.3125 -5.3125,0 c -2.9357,0 -5.3125,2.37713 -5.3125,5.3125 l 0.012,15.93548 51.375,0 -0,3.5434 -51.375,0 -0.01,15.95862 c -0,2.93537 2.3771,5.3125 5.3125,5.3125 l 5.3125,0 0,-5.3125 10.625,0 30.125,0 0,3.53125 -30.0937,0 -0.031,14.15625 -10.625,0 0,35.4375 10.625,0 0,17.71875 70.875,0 0,-177.15625 z"
       transform="translate(0,308.26769)"
       id="path15770"
       inkscape:connector-curvature="0"
       sodipodi:nodetypes="cccccccccccssccccsscccccccccccccc" />
  </g>
</svg>
